X:219
T:Reel Antoinette
M:2/4
L:1/16
K:D
A2f2 ffdf | Affd f2df | a3a afaa | bagf e2c2 | 
A2g2 ggeg | Agge g2eg | a3a ageg | fgfe d3A | 
A2f2 ffdf | Affd f2df | a3' afaa | b4 z2a2 | 
gbbg b2ag | faaf a2A | Acef gece | dBAF D4 ::
f3f d2ff | bbfb a3a | f2af d2f2 | aafa g2 zf |
g3g f2e2 | c6b2 | a2aa ggeg | fgfe d2Ad | 
f3f d2f2 | bbfb a3z | d3d cdcA | B6B2z2 | 
g3g g2fe | dffd f3A | Acef gece | dBAF D4 :|

